X: 10
T: Lads Of Laois, The
Z: UPipes & harp
S: https://thesession.org/tunes/58#setting49072
R: reel
M: 4/4
L: 1/8
K: Emin
|:eB B2 EGFE|DA A2 DEFD|GEED EFGA|B2 eB dBAF|
eB B2 EGFE|DA A2 DEFD|E2 BE dBAF|DEFA BE E2:|
|:eB B2 egfe|defa gfed|Bdef g3e|fgaf gfed|
eB B2 GBFA|EBBA Bdef|g3e f3d|egfd BAFA:|

